DuckDuckGo/AppTP.xcassets/AppTPSwitch.imageset/Shield-Switch-128.svg

<svg width="128" height="96" viewBox="0 0 128 96" fill="none" xmlns="http://www.w3.org/2000/svg">
<path opacity="0.2" d="M105.629 38.1999L107.171 37.7999C107.457 37.7428 107.743 37.4571 107.8 37.1713L108.2 35.6285C108.314 35.2285 108.657 34.9999 109 34.9999C109.4 34.9999 109.743 35.2856 109.8 35.6285L110.2 37.1713C110.257 37.4571 110.543 37.7428 110.829 37.7999L112.371 38.1999C112.771 38.3142 113 38.6571 113 38.9999C113 39.3999 112.714 39.7428 112.371 39.7999L110.829 40.1999C110.543 40.2571 110.257 40.5428 110.2 40.8285L109.8 42.3713C109.686 42.7713 109.343 42.9999 109 42.9999C108.6 42.9999 108.257 42.7142 108.2 42.3713L107.8 40.8285C107.743 40.5428 107.457 40.2571 107.171 40.1999L105.629 39.7999C105.229 39.6856 105 39.3428 105 38.9999C105 38.5999 105.286 38.2571 105.629 38.1999Z" fill="#888888"/>
<path opacity="0.2" d="M15.9428 31.7999L18.2571 31.1999C18.6857 31.1142 19.1143 30.6856 19.2 30.2571L19.8 27.9428C19.9714 27.3428 20.4857 26.9999 21 26.9999C21.6 26.9999 22.1143 27.4285 22.2 27.9428L22.8 30.2571C22.8857 30.6856 23.3143 31.1142 23.7429 31.1999L26.0572 31.7999C26.6572 31.9713 27 32.4856 27 32.9999C27 33.5999 26.5714 34.1142 26.0572 34.1999L23.7429 34.7999C23.3143 34.8856 22.8857 35.3142 22.8 35.7428L22.2 38.0571C22.0286 38.6571 21.5143 38.9999 21 38.9999C20.4 38.9999 19.8857 38.5713 19.8 38.0571L19.2 35.7428C19.1143 35.3142 18.6857 34.8856 18.2571 34.7999L15.9428 34.1999C15.3428 34.0285 15 33.5142 15 32.9999C15 32.3999 15.4286 31.8856 15.9428 31.7999Z" fill="#888888"/>
<path opacity="0.2" d="M0.628557 53.1999L2.17142 52.7999C2.45714 52.7428 2.74287 52.4571 2.80001 52.1713L3.19999 50.6285C3.31427 50.2285 3.65714 49.9999 4 49.9999C4.4 49.9999 4.74287 50.2856 4.80001 50.6285L5.19999 52.1713C5.25713 52.4571 5.54286 52.7428 5.82858 52.7999L7.37144 53.1999C7.77144 53.3142 8 53.6571 8 53.9999C8 54.3999 7.7143 54.7428 7.37144 54.7999L5.82858 55.1999C5.54286 55.2571 5.25713 55.5428 5.19999 55.8285L4.80001 57.3713C4.68573 57.7713 4.34286 57.9999 4 57.9999C3.6 57.9999 3.25713 57.7142 3.19999 57.3713L2.80001 55.8285C2.74287 55.5428 2.45714 55.2571 2.17142 55.1999L0.628557 54.7999C0.228557 54.6856 0 54.3428 0 53.9999C0 53.5999 0.2857 53.2571 0.628557 53.1999Z" fill="#888888"/>
<path opacity="0.2" d="M126.5 51.9999C125.675 51.9999 125 51.3249 125 50.4999C125 49.6749 125.675 48.9999 126.5 48.9999C127.325 48.9999 128 49.6749 128 50.4999C128 51.3249 127.325 51.9999 126.5 51.9999Z" fill="#888888"/>
<path opacity="0.2" d="M23 69.9999C21.9 69.9999 21 69.0999 21 67.9999C21 66.8999 21.9 65.9999 23 65.9999C24.1 65.9999 25 66.8999 25 67.9999C25 69.0999 24.1 69.9999 23 69.9999Z" fill="#888888"/>
<path fill-rule="evenodd" clip-rule="evenodd" d="M36.5001 25.5577V40.0961C36.5001 72.2883 63.5 76.9038 63.5 76.9038C63.5 76.9038 64.0527 76.8093 65 76.5531V73C65 62.5066 73.5066 54 84 54H88.5001C89.7501 50.0605 90.5 45.4613 90.5 40.0961V25.5577L76.5 26.4038L63.5001 17.25L51 25.9038L36.5001 25.5577Z" fill="white"/>
<path d="M87.6665 54H84C73.5066 54 65 62.5066 65 73V74L63.5 76V17.7693L76.5 26.4038L89.9807 26.077V40.6154C89.9807 44.8719 89.1638 49.5139 87.6665 54Z" fill="#F2F2F2"/>
<path fill-rule="evenodd" clip-rule="evenodd" d="M57.7859 18.2024C59.2811 16.6962 61.3723 15.8986 63.4906 15.9038C65.6089 15.909 67.6961 16.717 69.1829 18.2319C71.9176 21.0183 74.3345 22.5098 76.8012 23.2746C79.2692 24.0399 82.211 24.2081 86.2556 23.6935C88.3454 23.4276 90.507 23.9554 92.1914 25.2209C93.8888 26.4961 94.9763 28.4412 94.9947 30.6025C95.0628 38.5992 94.4763 45.0988 93.2103 50.4881C92.7136 52.6025 90.7672 54 88.5953 54H86.9484C88.9952 48.5326 90.0845 41.1604 89.9949 30.6451C89.991 30.1871 89.762 29.6495 89.1882 29.2185C88.6014 28.7776 87.7592 28.5425 86.8867 28.6535C82.4265 29.221 78.7062 29.1002 75.3204 28.0503C71.8807 26.9837 68.7784 24.958 65.6144 21.7341C65.1401 21.2509 64.37 20.906 63.4783 20.9038C62.5866 20.9016 61.8131 21.2428 61.3345 21.7249C58.2187 24.8638 55.1601 26.8896 51.7475 27.9802C48.3621 29.0621 44.6254 29.2233 40.1094 28.654C39.2374 28.5441 38.3963 28.7798 37.8105 29.2205C37.2376 29.6514 37.009 30.1885 37.0051 30.6461C36.8799 45.344 39.0581 53.901 42.9352 59.6988C47.1087 65.9398 53.3545 69.1642 61.3447 73.2139L62.034 73.5633C62.9293 74.0173 64.0709 74.0172 64.9662 73.5632L65 73.546V74.5952C65 77.012 63.1732 79.2435 60.8791 78.4831C60.5007 78.3577 60.1306 78.2042 59.7726 78.0227L58.8147 77.5371C51.1321 73.644 43.741 69.8985 38.7789 62.4782C34.0794 55.4506 31.8768 45.6922 32.0053 30.6035C32.0237 28.444 33.1094 26.5002 34.8046 25.2248C36.4869 23.9593 38.6462 23.43 40.7348 23.6933C44.8061 24.2065 47.757 24.0063 50.2255 23.2175C52.6856 22.4313 55.0793 20.9291 57.7859 18.2024Z" fill="#CACACA"/>
<path d="M114.565 72.8575H118.167C118.827 72.8575 119.368 73.3978 119.368 74.0582C119.368 74.7185 118.827 75.2589 118.167 75.2589H114.565C113.905 75.2589 113.364 74.7185 113.364 74.0582C113.364 73.3978 113.905 72.8575 114.565 72.8575Z" fill="#CCCCCC"/>
<path d="M115.765 62.0515C116.071 62.0515 116.378 62.1716 116.612 62.4057C117.08 62.874 117.08 63.6364 116.612 64.1047L114.21 66.506C113.742 66.9743 112.98 66.9743 112.511 66.506C112.043 66.0378 112.043 65.2753 112.511 64.8071L114.913 62.4057C115.147 62.1716 115.453 62.0515 115.759 62.0515H115.765Z" fill="#CCCCCC"/>
<path d="M113.371 81.2634C113.064 81.2634 112.758 81.3835 112.524 81.6176C112.056 82.0859 112.056 82.8483 112.524 83.3166L114.925 85.7179C115.394 86.1862 116.156 86.1862 116.624 85.7179C117.093 85.2497 117.093 84.4872 116.624 84.019L114.223 81.6176C113.989 81.3835 113.683 81.2634 113.377 81.2634H113.371Z" fill="#CCCCCC"/>
<path d="M69.999 73C69.999 65.268 76.267 59 83.999 59H93.999C101.731 59 107.999 65.268 107.999 73V73C107.999 80.732 101.731 87 93.999 87H83.999C76.267 87 69.999 80.732 69.999 73V73Z" fill="#4CBA3C"/>
<path d="M93.999 83C99.5219 83 103.999 78.5228 103.999 73C103.999 67.4772 99.5219 63 93.999 63C88.4762 63 83.999 67.4772 83.999 73C83.999 78.5228 88.4762 83 93.999 83Z" fill="white"/>
</svg>

<svg fill="none" viewBox="0 0 128 96" xmlns="http://www.w3.org/2000/svg">
  <path fill="#888" d="m105.629 38.2 1.542-.4a.875.875 0 0 0 .629-.629l.4-1.543A.84.84 0 0 1 109 35c.4 0 .743.286.8.628l.4 1.543a.875.875 0 0 0 .629.629l1.542.4c.4.114.629.457.629.8 0 .4-.286.743-.629.8l-1.542.4a.875.875 0 0 0-.629.628l-.4 1.543a.84.84 0 0 1-.8.629c-.4 0-.743-.286-.8-.629l-.4-1.543a.875.875 0 0 0-.629-.628l-1.542-.4A.842.842 0 0 1 105 39c0-.4.286-.743.629-.8Zm-89.686-6.4 2.314-.6c.429-.086.857-.514.943-.943l.6-2.314c.171-.6.686-.943 1.2-.943.6 0 1.114.428 1.2.943l.6 2.314c.086.429.514.857.943.943l2.314.6c.6.171.943.686.943 1.2 0 .6-.429 1.114-.943 1.2l-2.314.6c-.429.086-.857.514-.943.943l-.6 2.314c-.171.6-.686.943-1.2.943-.6 0-1.114-.429-1.2-.943l-.6-2.314c-.086-.429-.514-.857-.943-.943l-2.314-.6c-.6-.172-.943-.686-.943-1.2 0-.6.429-1.114.943-1.2ZM.629 53.2l1.542-.4a.876.876 0 0 0 .629-.629l.4-1.543A.841.841 0 0 1 4 50c.4 0 .743.286.8.628l.4 1.543a.876.876 0 0 0 .629.629l1.542.4c.4.114.629.457.629.8 0 .4-.286.743-.629.8l-1.542.4a.875.875 0 0 0-.629.628l-.4 1.543A.841.841 0 0 1 4 58c-.4 0-.743-.286-.8-.629l-.4-1.543a.875.875 0 0 0-.629-.628L.63 54.8A.841.841 0 0 1 0 54c0-.4.286-.743.629-.8ZM126.5 52c-.825 0-1.5-.675-1.5-1.5s.675-1.5 1.5-1.5 1.5.675 1.5 1.5-.675 1.5-1.5 1.5ZM23 70c-1.1 0-2-.9-2-2s.9-2 2-2 2 .9 2 2-.9 2-2 2Z" opacity=".2"/>
  <path fill="#fff" fill-rule="evenodd" d="M36.5 25.558v14.538c0 32.192 27 36.808 27 36.808s.553-.095 1.5-.35V73c0-10.493 8.507-19 19-19h4.5c1.25-3.94 2-8.539 2-13.904V25.558l-14 .846-13-9.154L51 25.904l-14.5-.346Z" clip-rule="evenodd"/>
  <path fill="#F2F2F2" d="M87.666 54H84c-10.493 0-19 8.507-19 19v1l-1.5 2V17.77l13 8.634 13.48-.327v14.538c0 4.257-.816 8.899-2.314 13.385Z"/>
  <path fill="#CACACA" fill-rule="evenodd" d="M57.786 18.202c1.495-1.506 3.586-2.303 5.705-2.298 2.118.005 4.205.813 5.692 2.328 2.735 2.786 5.151 4.278 7.618 5.043 2.468.765 5.41.933 9.455.419 2.09-.266 4.251.261 5.935 1.527 1.698 1.275 2.785 3.22 2.804 5.381.068 7.997-.519 14.497-1.785 19.886C92.714 52.602 90.767 54 88.595 54h-1.647c2.047-5.467 3.137-12.84 3.047-23.355-.004-.458-.233-.995-.807-1.427-.587-.44-1.429-.675-2.301-.564-4.46.567-8.18.446-11.567-.604-3.44-1.066-6.542-3.092-9.706-6.316-.474-.483-1.244-.828-2.136-.83-.891-.002-1.665.339-2.144.82-3.115 3.14-6.174 5.166-9.587 6.256-3.385 1.082-7.122 1.243-11.638.674-.872-.11-1.713.126-2.299.567-.572.43-.801.968-.805 1.425-.125 14.698 2.053 23.255 5.93 29.053 4.174 6.24 10.42 9.465 18.41 13.515l.689.35a3.327 3.327 0 0 0 2.932 0l.034-.018v1.05c0 2.416-1.827 4.647-4.12 3.887a8.04 8.04 0 0 1-1.107-.46l-.958-.486c-7.683-3.893-15.074-7.639-20.036-15.059-4.7-7.027-6.902-16.786-6.774-31.875.019-2.159 1.104-4.103 2.8-5.378 1.682-1.266 3.841-1.795 5.93-1.532 4.071.513 7.022.313 9.49-.476 2.46-.786 4.854-2.288 7.56-5.015Z" clip-rule="evenodd"/>
  <path fill="#CCC" d="M114.565 72.858h3.602c.66 0 1.201.54 1.201 1.2 0 .66-.541 1.2-1.201 1.2h-3.602c-.66 0-1.201-.54-1.201-1.2 0-.66.541-1.2 1.201-1.2Zm1.201-10.807a1.203 1.203 0 0 1 .846 2.053l-2.401 2.402a1.203 1.203 0 0 1-1.699 0 1.203 1.203 0 0 1 0-1.699l2.401-2.401c.234-.234.54-.355.847-.355h.006Zm-2.395 19.212a1.203 1.203 0 0 0-.847 2.053l2.401 2.402a1.202 1.202 0 0 0 1.699-1.699l-2.401-2.401a1.196 1.196 0 0 0-.846-.355h-.006Z"/>
  <path fill="#4CBA3C" d="M70 73c0-7.732 6.268-14 14-14h10c7.732 0 14 6.268 14 14s-6.268 14-14 14H84c-7.732 0-14-6.268-14-14Z"/>
  <path fill="#fff" d="M94 83c5.523 0 10-4.477 10-10s-4.477-10-10-10-10 4.477-10 10 4.477 10 10 10Z"/>
</svg>
